X:52
T:Lord Moira's Welcome to Scotland
R:Strathspey
O:England
M:2/4
L:1/8
N:Loudon's Bonny Woods and Braes (played in Co Down)(BStocks)
A:Lancashire
B:Winder
K:G
  G<G G>G | Bd d2 | cA c/B/A/G/ | A>G FD | \
  G<G G>G | Bd d2 | eg f/g/a/f/ | g4 :|*
|:bg a>g | fd d2 | ee g>e | dc BG | \
  gg b>g | a>g fd |eg f/g/a/f/ |g2 ga/b/|\
c>a b>g | a>g eg | dB gB | c/B/A/G/ AB| \
G<G G>G | Bdd2 | eg f/g/a/f/ | g4 :|**
